src/icons/back.svg

<svg viewBox="0 0 24 24" fill="currentColor" xmlns="http://www.w3.org/2000/svg">
<path d="M3.44995 12.0045C3.44995 12.2753 3.56729 12.5461 3.7749 12.7447L9.73235 18.6931C9.94898 18.9007 10.1837 19 10.4454 19C11.0141 19 11.4293 18.5938 11.4293 18.0432C11.4293 17.7544 11.321 17.5106 11.1314 17.3301L9.1005 15.2721L6.48283 12.8801L8.58599 13.0064H19.526C20.1218 13.0064 20.537 12.5912 20.537 12.0045C20.537 11.4088 20.1218 10.9936 19.526 10.9936H8.58599L6.49186 11.1199L9.1005 8.72792L11.1314 6.66989C11.321 6.48936 11.4293 6.24565 11.4293 5.9568C11.4293 5.40619 11.0141 5 10.4454 5C10.1837 5 9.93996 5.09929 9.70527 5.32495L3.7749 11.2553C3.56729 11.4539 3.44995 11.7247 3.44995 12.0045Z"/>
</svg>

<svg viewBox="0 0 24 24" fill="currentColor" xmlns="http://www.w3.org/2000/svg"><path d="M3.45 12.005c0 .27.117.541.325.74l5.957 5.948c.217.208.452.307.713.307.57 0 .984-.406.984-.957a.959.959 0 0 0-.298-.713l-2.03-2.058-2.618-2.392 2.103.126h10.94c.596 0 1.011-.415 1.011-1.002 0-.595-.415-1.01-1.011-1.01H8.586l-2.094.126L9.1 8.728l2.03-2.058a.959.959 0 0 0 .298-.713c0-.55-.415-.957-.984-.957-.261 0-.505.1-.74.325l-5.93 5.93a1.04 1.04 0 0 0-.325.75z"/></svg>
